svg/u1f469_1f3fb_200d_1f527.svg

<svg viewBox="0 0 128 128" xmlns="http://www.w3.org/2000/svg">
  <g id="hair">
    <path d="M49.4,5.3c-27.73,0-36.31,38.49-36.39,39.09c-3.5,24.28-1.23,57.51,8.59,71.16 c3.9,5.41,11.43,5.71,11.43,5.71L50,121.23l16.97,0.03c0,0,7.53-0.3,11.43-5.71c9.83-13.65,12.1-47.21,8.6-70.74 C86.92,44.21,83.84,5.3,49.4,5.3z" fill="#312D2D"/>
  </g>
  <g id="shirt_1_">
    <g>
      <linearGradient id="SVGID_1_" gradientTransform="matrix(1 0 0 -1 0 128)" gradientUnits="userSpaceOnUse" x1="50.005" x2="50.005" y1="32.2601" y2="-3.1708">
        <stop offset="3.200000e-03" stop-color="#303F9F"/>
        <stop offset="0.4718" stop-color="#273492"/>
        <stop offset="1" stop-color="#1A237E"/>
      </linearGradient>
      <path d="M96,120.8v3.2H4v-3.2c0-7.94,4.68-13.79,11.87-17.82c8.9-5,21.65-7.22,34.13-7.24 s25.15,2.49,34.02,7.54C91.29,107.41,96,113.25,96,120.8z" fill="url(#SVGID_1_)"/>
    </g>
  </g>
  <g id="neck">
    <path d="M50,92.37h-9.08v9.98c0,4.51,3.7,8.17,8.26,8.17h1.65c4.56,0,8.26-3.66,8.26-8.17v-9.98H50z" fill="#EDC391"/>
  </g>
  <path d="M104.2,104.65L100.16,124h1.53h1.53h9.02h1.5h1.5v-3.2C115.25,114.05,110.98,108.66,104.2,104.65z" fill="#1B2B8F"/>
  <g id="face_1_">
    <g id="head_1_">
      <path d="M50.4,16.04L50.4,16.04L50.4,16.04c-17.2,0-33.13,12.79-33.13,39.91 c0,21.78,13.49,34.67,25.23,38.83c2.8,0.99,5.5,1.49,7.9,1.49c2.38,0,5.07-0.49,7.85-1.47C70,90.66,83.53,77.77,83.53,55.95 C83.53,28.83,67.6,16.04,50.4,16.04z" fill="#F9DDBD"/>
    </g>
    <path id="nose_1_" d="M54.21,68.06c-0.1-0.04-0.21-0.07-0.32-0.08H46.9c-0.11,0.01-0.21,0.04-0.32,0.08 c-0.63,0.26-0.98,0.91-0.68,1.61c0.3,0.7,1.69,2.66,4.49,2.66s4.19-1.96,4.49-2.66C55.19,68.97,54.84,68.31,54.21,68.06z" fill="#DBA689"/>
    <g id="eyes_1_">
      <ellipse cx="35.15" cy="58.87" fill="#312D2D" rx="4.87" ry="5.04"/>
      <ellipse cx="65.64" cy="58.87" fill="#312D2D" rx="4.87" ry="5.04"/>
    </g>
    <g id="eyebrows_1_">
      <path d="M41.38,49.82c-0.93-1.23-3.07-3.01-7.23-3.01s-6.31,1.79-7.23,3.01c-0.41,0.54-0.31,1.17-0.02,1.55 c0.26,0.35,1.04,0.68,1.9,0.39s2.54-1.16,5.35-1.18c2.81,0.02,4.49,0.89,5.35,1.18c0.86,0.29,1.64-0.03,1.9-0.39 C41.69,50.99,41.79,50.36,41.38,49.82z" fill="#454140"/>
      <path d="M73.88,49.82c-0.93-1.23-3.07-3.01-7.23-3.01s-6.31,1.79-7.23,3.01c-0.41,0.54-0.31,1.17-0.02,1.55 c0.26,0.35,1.04,0.68,1.9,0.39s2.54-1.16,5.35-1.18c2.81,0.02,4.49,0.89,5.35,1.18c0.86,0.29,1.64-0.03,1.9-0.39 C74.18,50.99,74.28,50.36,73.88,49.82z" fill="#454140"/>
    </g>
    <path id="mouth_1_" d="M58.46,76.14c-3.15,1.87-13.47,1.87-16.61,0c-1.81-1.07-3.65,0.57-2.9,2.21 c0.74,1.61,6.37,5.36,11.23,5.36s10.42-3.75,11.16-5.36C62.09,76.71,60.27,75.06,58.46,76.14z" fill="#444444"/>
  </g>
  <g id="hair_1_">
    <path d="M85.16,40.12c0,0-0.59-33.04-35.12-33.04S14.77,40.12,14.77,40.12s-1.78,46.77,0.77,53.26 c2.59,6.6,6.93,6.37,6.93,6.37s-1.01-28.81-0.78-41.71c0.05-2.95-0.39-13.69,5.34-15.03c20.86-4.88,32.44-16.16,32.44-16.16 c3.12,6.79,12.78,13.54,16.3,16.13c2.91,2.14,2.83,11.1,2.92,14.97l-1.54,41.73c0,0,4.7,0.42,7.39-6.3 C87.18,86.77,85.16,40.12,85.16,40.12z" fill="#312D2D"/>
  </g>
  <g id="lapels">
    <polygon id="undershirt" fill="#F5F5F5" points="59.31,104.56 39.41,104.56 47.31,124 52.35,124 "/>
    <g>
      <linearGradient id="SVGID_2_" gradientTransform="matrix(1 0 0 -1 0 128)" gradientUnits="userSpaceOnUse" x1="30.6406" x2="41.2453" y1="28.7095" y2="2.756">
        <stop offset="0" stop-color="#5C6BC0"/>
        <stop offset="1" stop-color="#3949AB"/>
      </linearGradient>
      <polygon fill="url(#SVGID_2_)" points="40.88,95.97 33.1,96.88 25.1,114.12 35.98,109.83 45.53,124 46.74,124 47.22,124 48.25,124 "/>
    </g>
    <g>
      <linearGradient id="SVGID_3_" gradientTransform="matrix(1 0 0 -1 0 128)" gradientUnits="userSpaceOnUse" x1="69.0202" x2="61.2064" y1="29.9326" y2="2.7234">
        <stop offset="0" stop-color="#5C6BC0"/>
        <stop offset="1" stop-color="#3949AB"/>
      </linearGradient>
      <polygon fill="url(#SVGID_3_)" points="66.91,96.88 59.12,95.97 51.76,124 52.79,124 53.53,124 54.76,124 64.81,110 74.91,114.12 "/>
    </g>
  </g>
  <g id="wrench_1_">
    <linearGradient id="SVGID_4_" gradientTransform="matrix(1 0 0 -1 0 128)" gradientUnits="userSpaceOnUse" x1="110.1246" x2="98.8688" y1="75.4471" y2="4.9356">
      <stop offset="0" stop-color="#90A4AE"/>
      <stop offset="0.2674" stop-color="#889DA8"/>
      <stop offset="0.5844" stop-color="#78909C"/>
      <stop offset="1" stop-color="#607D8B"/>
    </linearGradient>
    <path d="M121.82,56.74c-0.34-0.6-0.92-0.88-1.49-0.88c-0.76,0-1.5,0.49-1.67,1.38l-1.46,7.9 c-0.1,0.53-0.44,0.99-0.93,1.22l-8.08,3.87c-0.23,0.11-0.48,0.17-0.73,0.17c-0.46,0-0.9-0.18-1.23-0.53l-6.16-6.5 c-0.37-0.39-0.53-0.94-0.44-1.47l1.46-7.9c0.21-1.14-0.69-2-1.68-2c-0.37,0-0.75,0.12-1.09,0.4c-2.95,2.45-5.12,5.97-5.89,10.12 c-1.09,5.9,0.91,11.61,4.82,15.33c1.76,1.68,2.6,4.1,2.16,6.49L92.09,124h1.02h1.02h6.24h1.02h1.02l6.99-37.82 c0.44-2.39,2.09-4.35,4.33-5.29c4.98-2.08,8.89-6.69,9.98-12.6C124.47,64.15,123.7,60.08,121.82,56.74z" fill="url(#SVGID_4_)"/>
  </g>
  <radialGradient id="hairHighlights_1_" cx="50.0051" cy="63.6906" gradientTransform="matrix(1.030000e-13 -1 -0.631 -6.500000e-14 90.1938 114.3165)" gradientUnits="userSpaceOnUse" r="64.799">
    <stop offset="0.85" stop-color="#454140" stop-opacity="0"/>
    <stop offset="1" stop-color="#454140"/>
  </radialGradient>
  <path id="hairHighlights" d="M84.03,103.28c-8.87-5.05-21.54-7.56-34.02-7.54 s-25.23,2.24-34.13,7.24c-4.85-16.27-5.54-40.04-2.87-58.59C13.1,43.79,21.67,5.3,49.4,5.3c34.44,0,37.52,38.91,37.61,39.5 C89.69,62.9,88.97,86.94,84.03,103.28z" fill="url(#hairHighlights_1_)"/>
  <g id="hand">
    <linearGradient id="SVGID_5_" gradientTransform="matrix(1 0 0 -1 0 128)" gradientUnits="userSpaceOnUse" x1="86.7116" x2="111.8949" y1="20.5041" y2="20.5041">
      <stop offset="0" stop-color="#FFD29C"/>
      <stop offset="0.5" stop-color="#F9DDBD"/>
    </linearGradient>
    <path d="M94.5,117.35l-1.9,2.15c0,0-5.68-1.21-5.01-4.5c0.16-0.78,1.56-2.44,1.56-2.44 s-2.85-2.35-2.4-3.94c0.45-1.57,3.17-2.79,3.17-2.79s-2.11-1.26-1.28-3.63c0.57-1.62,3.53-2.16,3.53-2.16s-2.76-4.05,2.85-4.97 c1.77-0.29,5.74,0.3,9.3,2.93s5.19,4.21,6.83,7.67c2.5,5.25-1.92,14.25-5.31,14.33C103.02,120.06,94.5,117.35,94.5,117.35z" fill="url(#SVGID_5_)"/>
  </g>
  <g id="mechanic_x5F_hat">
    <linearGradient id="SVGID_6_" gradientTransform="matrix(1 0 0 -1 0 128)" gradientUnits="userSpaceOnUse" x1="49.9955" x2="49.9955" y1="89.1207" y2="129.3377">
      <stop offset="0" stop-color="#0068B5"/>
      <stop offset="0.807" stop-color="#4C8EEA"/>
      <stop offset="1" stop-color="#5E97F6"/>
    </linearGradient>
    <path d="M49.73,4.59c17.94,0,34.41,11.66,37.27,40.22c0,0-9.75-8.02-36.77-8.02 c-29.25,0-37.33,8.53-37.23,7.6c3.12-28.52,19.59-39.8,37.22-39.8H49.73z" fill="url(#SVGID_6_)"/>
    <linearGradient id="SVGID_7_" gradientTransform="matrix(1 0 0 -1 0 128)" gradientUnits="userSpaceOnUse" x1="49.725" x2="49.725" y1="82.5373" y2="108.2929">
      <stop offset="0" stop-color="#0068B5"/>
      <stop offset="1" stop-color="#5E97F6"/>
    </linearGradient>
    <path d="M26.93,34.45c0-18.74,8.97-28.81,22.8-28.81s22.8,10.47,22.8,28.81 c0,14.9-10.78,3.17-22.8,3.17S26.93,49.36,26.93,34.45z" fill="url(#SVGID_7_)"/>
    <path d="M50.08,28.49c-21.77,0-32.21,11.89-32.21,11.89c-0.02,1.97,2.2,5.52,7.25,6.33 c6.95,1.12,11.44-4.5,24.85-4.5c0.03,0,0.05,0,0.07,0v-0.03l0.04,0.03c0.03,0,0.05,0,0.07,0c13.41,0,17.89,5.61,24.85,4.5 c5.05-0.81,6.89-3.85,6.87-5.81C81.87,40.89,72.11,28.49,50.08,28.49z" fill="#5E97F6"/>
  </g>
</svg>

<svg viewBox="0 0 128 128" xmlns="http://www.w3.org/2000/svg">
  <defs>
    <radialGradient id="hairHighlights_1_" cx="-64.3114" cy="-79.247276" gradientTransform="matrix(0 -1 -0.631 0 0 0)" gradientUnits="userSpaceOnUse" r="64.799">
      <stop offset="0.85" stop-color="#454140" stop-opacity="0"/>
      <stop offset="1" stop-color="#454140"/>
    </radialGradient>
    <linearGradient id="SVGID_4_" gradientTransform="matrix(1 0 0 -1 0 0)" gradientUnits="userSpaceOnUse" x1="110.1246" x2="98.8688" y1="-52.5529" y2="-123.0644">
      <stop offset="0" stop-color="#90A4AE"/>
      <stop offset="0.2674" stop-color="#889DA8"/>
      <stop offset="0.5844" stop-color="#78909C"/>
      <stop offset="1" stop-color="#607D8B"/>
    </linearGradient>
    <linearGradient id="SVGID_5_" gradientTransform="matrix(1 0 0 -1 0 0)" gradientUnits="userSpaceOnUse" x1="86.7116" x2="111.8949" y1="-107.4959" y2="-107.4959">
      <stop offset="0" stop-color="#FFD29C"/>
      <stop offset="0.5" stop-color="#F9DDBD"/>
    </linearGradient>
    <linearGradient id="SVGID_6_" gradientTransform="matrix(1 0 0 -1 0 0)" gradientUnits="userSpaceOnUse" x1="49.9955" x2="49.9955" y1="-38.8793" y2="1.3377">
      <stop offset="0" stop-color="#0068B5"/>
      <stop offset="0.807" stop-color="#4C8EEA"/>
      <stop offset="1" stop-color="#5E97F6"/>
    </linearGradient>
    <linearGradient id="SVGID_7_" gradientTransform="matrix(1 0 0 -1 0 0)" gradientUnits="userSpaceOnUse" x1="49.725" x2="49.725" y1="-45.4627" y2="-19.7071">
      <stop offset="0" stop-color="#0068B5"/>
      <stop offset="1" stop-color="#5E97F6"/>
    </linearGradient>
    <linearGradient id="SVGID_1_" gradientTransform="matrix(1 0 0 -1 0 0)" gradientUnits="userSpaceOnUse" x1="50.005" x2="50.005" y1="-95.7399" y2="-131.1708">
      <stop offset="3.200000e-03" stop-color="#303F9F"/>
      <stop offset="0.4718" stop-color="#273492"/>
      <stop offset="1" stop-color="#1A237E"/>
    </linearGradient>
    <linearGradient id="SVGID_2_" gradientTransform="matrix(1 0 0 -1 0 0)" gradientUnits="userSpaceOnUse" x1="30.6406" x2="41.2453" y1="-99.2905" y2="-125.244">
      <stop offset="0" stop-color="#5C6BC0"/>
      <stop offset="1" stop-color="#3949AB"/>
    </linearGradient>
    <linearGradient id="SVGID_3_" gradientTransform="matrix(1 0 0 -1 0 0)" gradientUnits="userSpaceOnUse" x1="69.0202" x2="61.2064" y1="-98.0674" y2="-125.2766">
      <stop offset="0" stop-color="#5C6BC0"/>
      <stop offset="1" stop-color="#3949AB"/>
    </linearGradient>
  </defs>
  <path d="M49.4,5.3 C21.67,5.3 13.09,43.79 13.01,44.39 C9.51,68.67 11.78,101.9 21.6,115.55 C25.5,120.96 33.03,121.26 33.03,121.26 L50,121.23 L66.97,121.26 C66.97,121.26 74.5,120.96 78.4,115.55 C88.23,101.9 90.5,68.34 87,44.81 C86.92,44.21 83.84,5.3 49.4,5.3 Z" fill="#312D2D"/>
  <path d="M96,120.8 L96,124 L4,124 L4,120.8 C4,112.86 8.68,107.01 15.87,102.98 C24.77,97.98 37.52,95.76 50,95.74 C62.48,95.72 75.15,98.23 84.02,103.28 C91.29,107.41 96,113.25 96,120.8 Z" fill="url(#SVGID_1_)"/>
  <path d="M50,92.37 L40.92,92.37 L40.92,102.35 C40.92,106.86 44.62,110.52 49.18,110.52 L50.83,110.52 C55.39,110.52 59.09,106.86 59.09,102.35 L59.09,92.37 L50,92.37 Z" fill="#EDC391"/>
  <path d="M104.2,104.65 L100.16,124 L101.69,124 L103.22,124 L112.24,124 L113.74,124 L115.24,124 L115.24,120.8 C115.25,114.05 110.98,108.66 104.2,104.65 Z" fill="#1B2B8F"/>
  <path d="M50.4,16.04 L50.4,16.04 L50.4,16.04 C33.2,16.04 17.27,28.83 17.27,55.95 C17.27,77.73 30.76,90.62 42.5,94.78 C45.3,95.77 48,96.27 50.4,96.27 C52.78,96.27 55.47,95.78 58.25,94.8 C70,90.66 83.53,77.77 83.53,55.95 C83.53,28.83 67.6,16.04 50.4,16.04 Z" fill="#F9DDBD"/>
  <path id="nose_1_" d="M54.21,68.06 C54.11,68.02 54,67.99 53.89,67.98 L46.9,67.98 C46.79,67.99 46.69,68.02 46.58,68.06 C45.95,68.32 45.6,68.97 45.9,69.67 C46.2,70.37 47.59,72.33 50.39,72.33 C53.19,72.33 54.58,70.37 54.88,69.67 C55.19,68.97 54.84,68.31 54.21,68.06 Z" fill="#DBA689"/>
  <path d="M40.02,58.87 A4.87 5.04 0 1 1 30.28,58.87 A4.87 5.04 0 1 1 40.02,58.87 Z" fill="#312D2D"/>
  <path d="M70.51,58.87 A4.87 5.04 0 1 1 60.77,58.87 A4.87 5.04 0 1 1 70.51,58.87 Z" fill="#312D2D"/>
  <path d="M41.38,49.82 C40.45,48.59 38.31,46.81 34.15,46.81 C29.99,46.81 27.84,48.6 26.92,49.82 C26.51,50.36 26.61,50.99 26.9,51.37 C27.16,51.72 27.94,52.05 28.8,51.76 C29.66,51.47 31.34,50.6 34.15,50.58 C36.96,50.6 38.64,51.47 39.5,51.76 C40.36,52.05 41.14,51.73 41.4,51.37 C41.69,50.99 41.79,50.36 41.38,49.82 Z" fill="#454140"/>
  <path d="M73.88,49.82 C72.95,48.59 70.81,46.81 66.65,46.81 C62.49,46.81 60.34,48.6 59.42,49.82 C59.01,50.36 59.11,50.99 59.4,51.37 C59.66,51.72 60.44,52.05 61.3,51.76 C62.16,51.47 63.84,50.6 66.65,50.58 C69.46,50.6 71.14,51.47 72,51.76 C72.86,52.05 73.64,51.73 73.9,51.37 C74.18,50.99 74.28,50.36 73.88,49.82 Z" fill="#454140"/>
  <path id="mouth_1_" d="M58.46,76.14 C55.31,78.01 44.99,78.01 41.85,76.14 C40.04,75.07 38.2,76.71 38.95,78.35 C39.69,79.96 45.32,83.71 50.18,83.71 C55.04,83.71 60.6,79.96 61.34,78.35 C62.09,76.71 60.27,75.06 58.46,76.14 Z" fill="#444444"/>
  <path d="M85.16,40.12 C85.16,40.12 84.57,7.08 50.04,7.08 C15.51,7.08 14.77,40.12 14.77,40.12 C14.77,40.12 12.99,86.89 15.54,93.38 C18.13,99.98 22.47,99.75 22.47,99.75 C22.47,99.75 21.46,70.94 21.69,58.04 C21.74,55.09 21.3,44.35 27.03,43.01 C47.89,38.13 59.47,26.85 59.47,26.85 C62.59,33.64 72.25,40.39 75.77,42.98 C78.68,45.12 78.6,54.08 78.69,57.95 L77.15,99.68 C77.15,99.68 81.85,100.1 84.54,93.38 C87.18,86.77 85.16,40.12 85.16,40.12 Z" fill="#312D2D"/>
  <path id="undershirt" d="M59.31,104.56 L39.41,104.56 L47.31,124 L52.35,124 Z" fill="#F5F5F5"/>
  <path d="M40.88,95.97 L33.1,96.88 L25.1,114.12 L35.98,109.83 L45.53,124 L46.74,124 L47.22,124 L48.25,124 Z" fill="url(#SVGID_2_)"/>
  <path d="M66.91,96.88 L59.12,95.97 L51.76,124 L52.79,124 L53.53,124 L54.76,124 L64.81,110 L74.91,114.12 Z" fill="url(#SVGID_3_)"/>
  <path d="M121.82,56.74 C121.48,56.14 120.9,55.86 120.33,55.86 C119.57,55.86 118.83,56.35 118.66,57.24 L117.2,65.14 C117.1,65.67 116.76,66.13 116.27,66.36 L108.19,70.23 C107.96,70.34 107.71,70.4 107.46,70.4 C107,70.4 106.56,70.22 106.23,69.87 L100.07,63.37 C99.7,62.98 99.54,62.43 99.63,61.9 L101.09,54 C101.3,52.86 100.4,52 99.41,52 C99.04,52 98.66,52.12 98.32,52.4 C95.37,54.85 93.2,58.37 92.43,62.52 C91.34,68.42 93.34,74.13 97.25,77.85 C99.01,79.53 99.85,81.95 99.41,84.34 L92.09,124 L93.11,124 L94.13,124 L100.37,124 L101.39,124 L102.41,124 L109.4,86.18 C109.84,83.79 111.49,81.83 113.73,80.89 C118.71,78.81 122.62,74.2 123.71,68.29 C124.47,64.15 123.7,60.08 121.82,56.74 Z" fill="url(#SVGID_4_)"/>
  <path id="hairHighlights" d="M84.03,103.28 C75.16,98.23 62.49,95.72 50.01,95.74 C37.53,95.76 24.78,97.98 15.88,102.98 C11.03,86.71 10.34,62.94 13.01,44.39 C13.1,43.79 21.67,5.3 49.4,5.3 C83.84,5.3 86.92,44.21 87.01,44.8 C89.69,62.9 88.97,86.94 84.03,103.28 Z" fill="url(#hairHighlights_1_)"/>
  <path d="M94.5,117.35 L92.6,119.5 C92.6,119.5 86.92,118.29 87.59,115 C87.75,114.22 89.15,112.56 89.15,112.56 C89.15,112.56 86.3,110.21 86.75,108.62 C87.2,107.05 89.92,105.83 89.92,105.83 C89.92,105.83 87.81,104.57 88.64,102.2 C89.21,100.58 92.17,100.04 92.17,100.04 C92.17,100.04 89.41,95.99 95.02,95.07 C96.79,94.78 100.76,95.37 104.32,98 C107.88,100.63 109.51,102.21 111.15,105.67 C113.65,110.92 109.23,119.92 105.84,120 C103.02,120.06 94.5,117.35 94.5,117.35 Z" fill="url(#SVGID_5_)"/>
  <path d="M49.73,4.59 C67.67,4.59 84.14,16.25 87,44.81 C87,44.81 77.25,36.79 50.23,36.79 C20.98,36.79 12.9,45.32 13,44.39 C16.12,15.87 32.59,4.59 50.22,4.59 L49.73,4.59 Z" fill="url(#SVGID_6_)"/>
  <path d="M26.93,34.45 C26.93,15.71 35.9,5.64 49.73,5.64 C63.56,5.64 72.53,16.11 72.53,34.45 C72.53,49.35 61.75,37.62 49.73,37.62 C37.71,37.62 26.93,49.36 26.93,34.45 Z" fill="url(#SVGID_7_)"/>
  <path d="M50.08,28.49 C28.31,28.49 17.87,40.38 17.87,40.38 C17.85,42.35 20.07,45.9 25.12,46.71 C32.07,47.83 36.56,42.21 49.97,42.21 C50,42.21 50.02,42.21 50.04,42.21 L50.04,42.18 L50.08,42.21 C50.11,42.21 50.13,42.21 50.15,42.21 C63.56,42.21 68.04,47.82 75,46.71 C80.05,45.9 81.89,42.86 81.87,40.9 C81.87,40.89 72.11,28.49 50.08,28.49 Z" fill="#5E97F6"/>
</svg>
